X:1
T:James Gibb editions
T:Hodie Christus natus est - Monteverdi
T:#
%%score [ 1 2 3 ]
L:1/8
Q:1/4=96
M:2/2
K:F
V:1 treble nm="Soprano" snm="S"
V:2 treble nm="Alto" snm="A"
V:3 treble-8 nm="Tenor" snm="T"
V:1
"^Claudio Monteverdi\n(1567-1643)" B4"^Hodie Christus natus est" c4 | d4 (c3 d | _e4) d4 | %3
w: Ho- di-|e Chri\- *|* stus|
 c3 c d4 | z8 | z4 B4- |[M:2/2] B4 c4 | d4 z2 d2- | d2 f4 e2- | ef g4 f2 | e4 z2 A2- | A2 =B2 c4 | %12
w: na- tus est.||Ho\-|* di-|e Sal\-|* va- tor|* ap- pa- ru-|it. Ho\-|* di- e|
 z2 B2 B2 A2 | c2 B2 A3 A | G4 z4 | z2 c4 d2 | e4 z2 e2 | e2 f2 d2 e2 | f3 f c4 | z2 f4 _e2 | %20
w: in ter- ra|ca- nunt an- ge-|li,|ho- di-|e in|ter- ra ca- nunt|an- ge- li,|ho- di-|
 d2 d2 d2 c2 | B2 A2 c3 c | A2 c4 (B2- | Bc d4) c2- | c2 B2 (c2 BA | G2 A2 B2) c2 | d4 f2 (e2- | %27
w: e in ter- ra|ca- nunt an- ge-|li. Lae- tan\-|* * * tur|* ar- chan\- * *|* * * ge-|li, lae- tan\-|
 ed/c/ d2) f2 B2 | B2 c2 d4 | z2 (c3 d e2- | e2) d2 c4 | c4 B4 | A2 c2 c2 c2- | c2 (B3 A AB/c/ | %34
w: * * * * tur ar-|chan- ge- li.|Ho\- * *|* di- e,|ho- di-|e ex- sul- tant|* iu\- * * * *|
 d4) c4 | z2 c2 c2 c2 | B2 A2 z4 | c2 (f3 e/d/ ec | d4) e4 | z8 | z4 (c4 | d3 c B2) A2 | G8 | %43
w: * sti,|ex- sul- tant|iu- sti,|di- cen\- * * * *|* tes:||Glo\-|* * * ri-|a|
 z2 A2 =B2 c2- | c2 B2 A4 | G2 c4 B2 | d4 c4 | z2 d4 d2 | f4[Q:1/4=94] e4 | %49
w: in ex- cel\-|* sis De-|o. Al- le-|lu- ia.|Al- le-|lu- ia.|
[Q:1/4=92] z2[Q:1/4=90] c4[Q:1/4=88] B2 |[Q:1/4=84] A8 |[Q:1/4=82] =B8 |] %52
w: Al- le-|lu-|ia.|
V:2
 z4 F4- | F2 G2 A4 | z2 (G3 A B2- | B2) A2 (B3 A | GF G4) F2 | G8 |[M:2/2] z4 z2 A2- | A2 (G4 F2- | %8
w: Ho\-|* di- e|Chri\- * *|* stus na\- *|* * * tus|est.|Ho\-|* di\- *|
 FE) D2 z2 G2 | (G3 A B2) A2 | G2 A4 F2 | F4 z2 A2- | A2 G2 F4 | E2 G4 F2 | E2 C2 (cBAG | %15
w: * * e Sal-|va\- * * tor|ap- pa- ru-|it. Ho\-|* di- e|in ter- ra|ca- nunt an\- * * *|
 F2) G2 A4 | z4 G4 | A4 B2 A2 | A2 B2 G4 | A4 B4- | B2 B2 A4 | z4 z2 G2 | (F3 G A2) G2- | %23
w: * ge- li,|ho-|di- e in|ter- ra ca-|nunt an\-|* ge- li.|Lae-|tan\- * * tur|
 G2 F4 (A2- | A2 G2 F2) D2 | (E3 F G4) | G2 (F3 G A2) | G4 D4 | _E3 E D2 (F2- | FG A4) G2 | %30
w: * ar- chan\-|* * * ge-|li, * *|lae- tan\- * *|tur ar-|chan- ge- li. Ho\-|* * * di-|
 (F3 G A4) | z8 | z2 A2 A2 A2 | (G4 F4- | F2 G2) A2 A2 | A2 A2 G4 | F2 F2 B4 | (A4 G4) | (G6 A2- | %39
w: e * *||ex- sul- tant|iu\- *|* * sti, ex-|sul- tant iu-|sti, di- cen-|tes: *|Glo\- *|
 AG F4) E2 | D2 G4 F2 | B2 F2 (GD F2- | F2 E2) D2 D2 | E2 F4 E2 | D4 C2 F2- | F2 E2 G2 D2 | %46
w: * * * ri-|a in ex-|cel- sis De\- * *|* * o, in|ex- cel- sis|De- o. Al\-|* le- lu- ia.|
 z2 F4 E2- | E2 G4 F2 | z2 A4 G2- | G2 A2 E2 G2 | F2 (G4 ^F2) | G8 |] %52
w: Al- le\-|* lu- ia.|Al- le\-|* lu- ia al-|le- lu\- *|ia.|
V:3
 z8 | z8 | z8 | z4 B4 | c4 d4 | (c3 d _e4- |[M:2/2][K:treble-8] e2 d2 c3 c | B4 B4- | B4 c4- | %9
w: |||Ho-|di- e|Chri\- * *|* stus na- tus|est. Ho\-|* di\-|
 c4 d4 | z4 d4 | d4 c2 d2 | _e3 e d4 | z2 B2 c2 d2 | z2 e2 e2 f2 | d2 e2 f3 f | c8 | z8 | d4 e4 | %19
w: * e|Sal-|va- tor ap-|pa- ru- it.|Ho- di- e|in ter- ra|ca- nunt an- ge-|li,||ho- di-|
 f4 z2 g2 | g4 f2 a2 | g2 f3 f e2 | z4 z2 G2 | B3 c de f2) | F2 G2 A2 B2 | c4 z2 c2 | %26
w: e in|ter\-- ra ca-|nunt an- ge- li.|Lae-|tan\- * * * *|tur ar- chan- ge-|li, lae-|
 (B3 c d2)"^Adoramus te - Monteverdi" c2- | c2 B4 G2- | G2 A2 B4 | z8 | z4 z2 (f2- | fg a4) g2 | %32
w: tan\- * * tur|* ar- chan\-|* ge- li||Ho\-|* * * di-|
 f2 F2 (FGAB | c2) G2 (d3 c | B4) A2 f2 | f2 f2 e4 | d6 e2 | f4 c4 | z4 (c4 | d3 c BG c2- | %40
w: e ex- sul\- * * *|* tant iu\- *|* sti, ex-|sul- tant iu-|sti, di-|cen- tes:|glo\-||
 c2) B2 A4 | z4 z2 A2 | =B2 c4 _B2 | A4 G4- | G4 z4 | z4 z2 G2- | G2 F2 A4 | G4 z2 B2- | B2 A2 c4 | %49
w: * ri- a|in|ex- cel- sis|De- o.||Al\-|* le- lu-|ia. Al\-|* le- lu-|
 B2 A4 G2 | d8 | G8 |] %52
w: ia. Al- le-|lu-|ia.|

